X: 10602
T: Douglas And Fiona Shearer
R: waltz
M: 3/4
K: Dmajor
de|a3g fe|d2A4|GAd2GA|dcA2 de|
a3g fe|e2d2FA|E2B,2A2|d4:|:dc|
B3B AG|FA d2 de|f3d ag|f2e2dc|
B3B AG|FA d2 cB|c2A2E2|D4:|

